X: 25530
T: Marian McCarthy
R: strathspey
M: 4/4
K: Amajor
|:A>B|c>Bc>A F>A E2|d>c (3Bdf e>c A2|a>fe>c B>A F2|(3cBA e>c B2 A>B|
c>Bc>A F>A E2|d>c (3Bdf e>c A2|a>fe>c B>AF>E|F>AA<B A2-:|
A>c|e2 (3fga e>c A2|(3fga (3fga e>c A2|E>Ac>A e>Ac>A|E>A (3cBA B2- B>d|
f2 (3fga e>c A2|(3fga (3fga e>cA>c|d>ef>d c>de>c|e<a (3ecA B2- B>c|
d>cd>f e2 (3cBA|E>Ac>A B>A F2|a>fe>c B>AF>E|F>AA>B A2-||

